X: 32
T: 249 To Wigton
R: jig
M: 6/8
K: Dminor
|:"Dm" Ade f2 d|"C" cAA cAA|"Dm" Ade f2 f|"Am" eag "Dm" edd|
"Dm" Ade f2 d|"C" cAA cAA|"Dm" ~d3 "C" cAG|"Dm" FDD D3:|
|:"Dm" fdd fdd|"Am" eAA eAA|"Dm" Ade f2 f|"Am" eag "Dm" edd|
"Dm" fdd fdd|"Am" eAA eAA|"Dm" ~d3 "C" cAG|"Dm" FDD D3:|

